icons/svg/announcement_72.svg

<?xml version="1.0" encoding="UTF-8"?>
<svg width="70px" height="58px" viewBox="0 0 70 58" version="1.1" xmlns="http://www.w3.org/2000/svg" xmlns:xlink="http://www.w3.org/1999/xlink">
    <!-- Generator: Sketch 59.1 (86144) - https://sketch.com -->
    <title>meetings/announcement_72</title>
    <desc>Created with Sketch.</desc>
    <g id="Icons-Webex" stroke="none" stroke-width="1" fill="none" fill-rule="evenodd">
        <g id="meetings/feedback_72" transform="translate(-1.000000, -7.000000)" fill="#171B1F">
            <g id="feedback_72" transform="translate(1.000000, 7.000000)">
                <path d="M69,43.3205 C69,45.0455 68.227,46.6475 66.877,47.7175 C65.533,48.7845 63.805,49.1725 62.129,48.7815 L10.954,37.3055 L10.954,12.5865 L62.138,1.1465 C63.807,0.7575 65.536,1.1465 66.88,2.2145 C68.227,3.2845 69,4.8865 69,6.6095 L69,43.3205 Z M24.061,51.3595 C24.502,52.6835 24.287,54.0915 23.471,55.2225 C22.657,56.3515 21.394,56.9985 20.005,56.9985 C18.111,56.9985 16.468,55.7795 15.916,53.9655 L11.168,38.3795 L20.434,40.4575 L24.061,51.3595 Z M0.999998737,24.9405 C1.002,20.4885 3.378,14.7815 9.954,12.8555 L9.954,37.0365 C3.371,35.1045 0.998,29.3945 0.999998737,24.9405 L0.999998737,24.9405 Z M67.501,1.4305 C65.918,0.1745 63.879,-0.2825 61.916,0.1715 L10.542,11.6525 C4.141,13.1415 0.002,18.3575 -7.61836617e-07,24.9405 C-0.002,31.3595 3.934,36.4705 10.062,38.1075 L14.959,54.2565 C15.641,56.4945 17.668,57.9985 20.005,57.9985 C21.719,57.9985 23.278,57.2005 24.282,55.8075 C25.288,54.4135 25.553,52.6755 25.01,51.0435 L21.573,40.7135 L61.906,49.7575 C62.408,49.8745 62.914,49.9305 63.416,49.9305 C64.885,49.9305 66.318,49.4385 67.499,48.5015 C69.088,47.2405 69.9999992,45.3515 69.9999992,43.3205 L69.9999992,6.6095 C69.9999992,4.5795 69.089,2.6925 67.501,1.4305 L67.501,1.4305 Z" id="fill"></path>
            </g>
        </g>
    </g>
</svg>

<svg width="70" height="58" xmlns="http://www.w3.org/2000/svg"><path d="M69 43.32a5.578 5.578 0 01-2.123 4.398 5.558 5.558 0 01-4.748 1.063L10.954 37.306v-24.72l51.184-11.44a5.556 5.556 0 014.742 1.069A5.583 5.583 0 0169 6.609v36.712zm-44.939 8.04a4.241 4.241 0 01-.59 3.862 4.228 4.228 0 01-3.466 1.776 4.252 4.252 0 01-4.089-3.032l-4.748-15.587 9.266 2.079 3.627 10.901zM1 24.94c.002-4.452 2.378-10.159 8.954-12.085v24.181C3.371 35.105.998 29.394 1 24.94zM67.501 1.43A6.566 6.566 0 0061.916.172l-51.374 11.48C4.141 13.143.002 18.358 0 24.941c-.002 6.419 3.934 11.53 10.062 13.167l4.897 16.149a5.248 5.248 0 005.046 3.742 5.217 5.217 0 004.277-2.192 5.234 5.234 0 00.728-4.764l-3.437-10.33 40.333 9.044a6.646 6.646 0 001.51.174 6.551 6.551 0 004.083-1.43A6.58 6.58 0 0070 43.322V6.608a6.58 6.58 0 00-2.499-5.178z" fill="#171B1F" fill-rule="evenodd"/></svg>
